!!!COM: Unknown
!!!CDT: Unknown
!!!OTL: National Anthem, Spain - Marcha Real (Royal March)
!!!ENC: Davis, Matthew J.
!!No Words, Melodic Line Only
**kern
*clefG2
*k[]
*X:
*M2/2
=1-
4cc
4g
4ee
8cc
8gg
=2
8ff
8ee
8dd
8cc
8cc
8b
8a
8g
=3
4cc
4dd
4ee
8r
8gg
=4
8ff
8ee
8dd
8cc
4gg
8.r
24g
24a
24b
=5
4cc
4g
4ee
8cc
8gg
=6
8ff
8ee
8dd
8cc
8cc
8b
8a
8g
=7
4cc
4dd
4ee
8r
8gg
=8
8ff
8ee
8dd
8cc
2gg
=9
4gg
8.ee
16gg
4ff
8.dd
16ff
=10
4ee
8.cc
16ee
8dd
8g
8a
8b
=11
4cc
4dd
8.ee
16ff
8gg
8ff
=12
4ee
4dd
4cc
4r
=13
4gg
8.ee
16gg
4ff
8.dd
16ff
=14
4ee
8.cc
16ee
8dd
8g
8a
8b
=15
4cc
4dd
8.ee
16ff
8gg
8ff
=16
4ee
4dd
4cc
4r
==17
*k[b-]
4f
4c
4a
8f
8cc
=18
8b-
8a
8g
8f
8f
8e
8d
8c
=19
4f
4g
4a
8r
8cc
=20
8b-
8a
8g
8f
4cc
8.r
24c
24d
24e
=21
4f
4c
4a
8f
8cc
=22
8b-
8a
8g
8f
8f
8e
8d
8c
=23
4f
4g
4a
8r
8cc
=24
8b-
8a
8g
8f
2cc
=25
4cc
8.a
16cc
4b-
8.g
16b-
=26
4a
8.f
16a
8g
8c
8d
8e
=27
4f
4g
8.a
16b-
8cc
8b-
=28
4a
4g
4f
4r
=29
4cc
8.a
16cc
4b-
8.g
16b-
=30
4a
8.f
16a
8g
8c
8d
8e
=31
4f
4g
8.a
16b-
8cc
8b-
=32
4a
4g
4f
4r
==33
*k[]
4cc
4g
4ee
8cc
8gg
=34
8ff
8ee
8dd
8cc
8cc
8b-
8a
8g
=35
4cc
4dd
4ee
8r
8gg
=36
8ff
8ee
8dd
8cc
4gg
8.r
24g
24a
24b-
=37
4cc
4g
4ee
8cc
8gg
=38
8ff
8ee
8dd
8cc
8cc
8b
8a
8g
=39
4cc
4dd
4ee
8r
8g
=40
8f
8e
8d
8c
2g
=41
4gg
8.ee
16gg
4ff
8.dd
16ff
=42
4ee
8.cc
16ee
8dd
8g
8a
8b
=43
4cc
4dd
8.ee
16ff
8gg
16ff
=44
4ee
4dd
4cc
4r
=45
4gg
8.ee
16gg
4ff
8.dd
16ff
=46
4ee
8.cc
16ee
8dd
8g
8a
8b
=47
4cc
4dd
8.ee
16ff
8gg
8ff
=48
4ee
4dd
4cc
4r
==|!
*-
